ion/car-sharp.svg

<svg viewBox="0 0 512 512" xmlns="http://www.w3.org/2000/svg"><path d="M447.68 220.78v0c-.23-1.07-.57-2.11-1-3.1l-48-112v0C396.15 99.81 390.38 96 384 96H128v-.001c-6.41-.01-12.19 3.81-14.71 9.7l-48 112h0c-.44.99-.78 2.03-1 3.1v0c-.21 1.05-.3 2.12-.29 3.2v184 0c0 4.41 3.58 8 8 8h32v0c4.41 0 8-3.59 8-8v-24h288v24 0c0 4.41 3.58 8 8 8h32v0c4.41 0 8-3.59 8-8v-184 0c0-1.09-.11-2.17-.32-3.22ZM144 320v0c-17.68 0-32-14.33-32-32 0-17.68 14.32-32 32-32 17.67 0 32 14.32 32 32v0c0 17.67-14.33 32-32 32Zm224 0v0c-17.68 0-32-14.33-32-32 0-17.68 14.32-32 32-32 17.67 0 32 14.32 32 32v0c0 17.67-14.33 32-32 32ZM104.26 208l34.29-80h234.9l34.29 80Z"/></svg>

<svg xmlns="http://www.w3.org/2000/svg" width="512" height="512" viewBox="0 0 512 512"><path d="M447.68,220.78a16.44,16.44,0,0,0-1-3.1l-48-112A16,16,0,0,0,384,96H128a16,16,0,0,0-14.71,9.7l-48,112a16.44,16.44,0,0,0-1,3.1A16.15,16.15,0,0,0,64,224V408a8,8,0,0,0,8,8h32a8,8,0,0,0,8-8V384H400v24a8,8,0,0,0,8,8h32a8,8,0,0,0,8-8V224A16.15,16.15,0,0,0,447.68,220.78ZM144,320a32,32,0,1,1,32-32A32,32,0,0,1,144,320Zm224,0a32,32,0,1,1,32-32A32,32,0,0,1,368,320ZM104.26,208l34.29-80h234.9l34.29,80Z"/></svg>
